X: 1
T: MacArthur Road #3  [E]
C: Dave Richardson
R: reel
Z: 2018 John Chambers <jc:trillian.mit.edu>
M: C|
L: 1/8
K: E
%%continueall 0
ec |\
"E"BG (3.G.G.G Bcef  | (3.g.g.g ge fece |\
"F#m"(3.f.f.f fg fece | gefg "A"fece |\
"E"BG (3.G.G.G Bcef  |
(3.g.g.g ge fece |\
"F#m"(3.f.f.f fg fecB |1 "A"ceef "E"e2 :|2 "A"ceef "E"e4 |[|\
"E"be (3.e.e.e bec'e |
be (3.e.e.e fece |\
"F#m"f2ff fece | fege "B7"fefg |\
"E"be (3.e.e.e bec'e | be (3.e.e.e fece |
"F#m"aAge fecA | "B7"Bcef "E"e2 |[| ga |\
"E"be (3.e.e.e bec'e | be (3.e.e.e fece |\
"F#m"f2ff fece |
fege "B7"fecA |\
"E"B4 Bcef | g3g- gfeg |\
"F#m"aAge fecA | "B7"Bcef "E"e2 |]
